X:90
T:Lou Diziou B
R:Bourre
M:3/8
L:1/8
N:La Bourre 4th edition 1929, page 87
Z:Steve Mansfield www.lesession.co.uk June 2012
K:Am
G |: A d2 | c2 d | e/ d/ c d | 
c A G | A d2 | c2 d | e/ d/ c d |1 A2 G :|
[2 A2 c | B A2 | D2 G | ^F/ G/ A c | 
B A c | B A2 | D2 G | ^F/ G/ A B | G3 |]

